X: 17097
T: Hedigan's Fancy
R: slip jig
M: 9/8
K: Gmajor
d2A BAG AFD|fed AFD GFE|d2A BAG AFD|BAB E2F GFE:|
def a2f agf|def agf gfe|def agf agf|bgf e2f gfe:|

